X:1
T:Turkey in the Straw
M:2/4
L:1/16
K:G
B-A| G2G2 G2B,-C| D2D2 D2 GA| B2B2B-A GA| B2A2 A2|B-A| G2G2 G2 B,C|\
 D2D2 D3 G| B- d2 ed-B GA| B2A2 G2| z2| BB dd d4| BB dd d4| cc ee e4|\
 cc ee| e4| gg gg dd dd| B2 BB A2G2| BB ded-BG-A| BB AA| G2||

